X:1
T:Someone You Loved
T:Someone You Loved
T:Lewis Capaldi (KI)
%%score 1 2
L:1/8
Q:1/4=110
M:4/4
K:Bb
V:1 treble nm="Violin" snm="Vln."
V:2 alto nm="Viola" snm="Vla."
V:1
!mf! vD8 | uC8 | vB,8 | uG,8 |:!p! v[B,D]8 | [FA]8 |!<(! !breath!vB4 vBDBD!<)! | %7
!f!!>(! v[G,E]6 u[G,E]2!>)! |!p! v[B,D]8 | [FA]8 |!<(! !breath!vB4 vBDBD!<)! | %11
!f!!>(! [B,E]6 [B,E]2!>)! |!p! v[B,D]8 | [FA]8 |!<(! !breath!vG4 vBDBD!<)! | %15
!f!!>(! [G,E]6 [G,E]2!>)! |!p! [B,D]8 | [FA]8 |!<(! !breath!vB4 vBDBD!<)! | %19
!f!!>(! [G,E]6 [G,E]2!>)! |!p! v[B,D]8 | [FA]8 |!<(! !breath!vB4 vBDBD!<)! | %23
!f!!>(! [G,E]6 [G,E]2!>)! |!p! v[B,D]8 | [FA]8 |!<(! !breath!vB4 vBDBD!<)! |1 %27
!f!!>(! [G,E]6 [G,E]2!>)! :|2 [G,E]6!<(! B,2!<)! ||!f! veGeG eGeG | BDBD BDBD | ACAC ACAC | %32
 ACAC BDBD | eGeG eGeG | BDBD BDBD |"_dim." ACAC ACAC |!p! vF6 uF2 | v[B,D]8 | u[FA]8 | %39
 !breath!vG4 vBDBD |!<(! [A,E]6 [G,E]2!<)! |!f! [B,D]8 | [FA]8 | %43
 !breath!vB4 !tenuto!vB!tenuto!D!tenuto!B!tenuto!D | %44
"^Rit..." !tenuto!G!tenuto!B,!tenuto!G!tenuto!B, !tenuto!G!tenuto!B,!tenuto!F!tenuto!B, | %45
!>(! !tenuto!!fermata!B,8!>)! |] %46
V:2
"^pizz."!f! dFdF dFdF | ACAC ACAC | BDBD BDBD | GB,GB, GB,FB, |: z"^arco"!f! vF(FD) (FD)(FD) | %5
 GAGF FGF(uD | D4) vD2 uD2 | GB,GB, GB,FB, | z vF(FD) (FD)(FD) | GAGF FGF(D | D4) vD2 uD2 | %11
 GB,GG (GF)uF(vc | d3) (F GF)(dc | c2) z vF FFF(B | c3) d dcB(uG | F3) vF GFF(c | d3) (F GF)d(c | %17
 c2) z ud dddd | dccB Bcc(c | B2) BB (vde) (d2 | d2) BB (vde) (d2 | d2) BB (de)dc | z uBBB ff d2 | %23
 z uBBB e2 d2 | z uBBB eevd(c | c) z vdd dddd | dccB Bcc(c |1 c)B z2 uG4 :|2 %28
 (cB) z2 z2 z!<(! F!<)! ||[K:treble]!ff! (vf g3) z uggg | g2 f2 f2 d2 | d2 c2 c2 d2 | e2 d2 c2 B2 | %33
 (vf g3) z uggg | ffff f2 dd |"_dim." d2 cc c2 z2 | z!mp! BBB (de) d2 | z BBB (de) d2 | %38
 z BBB (de)dc | z BBB ff d2 | z!<(! BBB e2 d2!<)! | z!ff! BBB eed(c | c) z dd dddd | dccB Bcc(c | %44
 c)B z2 !tenuto!uG4 |!>(! !tenuto!!fermata!F8!>)! |] %46

